images/Method.svg

<svg width="510" height="126" viewBox="0 0 510 126" fill="none" xmlns="http://www.w3.org/2000/svg">
<path d="M462.358 124.915C453.975 124.915 446.764 122.992 440.734 119.157C434.713 115.312 430.072 109.967 426.827 103.112C423.573 96.2572 421.951 88.4645 421.951 79.7153C421.951 70.9661 423.611 62.9671 426.911 56.0559C430.222 49.1447 434.948 43.6776 441.09 39.6547C447.242 35.6411 454.566 33.6249 463.071 33.6249C469.804 33.6249 475.806 35.0222 481.057 37.7979C486.318 40.5737 490.425 44.681 493.379 50.1106V0.119141H509.874V122.786H494.973L493.557 107.013C490.725 112.808 486.562 117.235 481.057 120.31C475.562 123.386 469.335 124.915 462.358 124.915ZM465.725 109.845C471.398 109.845 476.274 108.551 480.344 105.944C484.433 103.347 487.593 99.7363 489.834 95.1319C492.076 90.5182 493.201 85.2105 493.201 79.1808C493.201 73.1511 492.076 67.8622 489.834 63.3235C487.593 58.7754 484.433 55.2025 480.344 52.5956C476.274 49.998 471.398 48.6946 465.725 48.6946C460.051 48.6946 455.213 50.0262 451.19 52.6894C447.176 55.3432 444.1 58.9535 441.972 63.5016C439.852 68.0497 438.783 73.2823 438.783 79.1808C438.783 85.0792 439.852 90.5276 441.972 95.1319C444.1 99.7456 447.176 103.347 451.19 105.944C455.213 108.551 460.061 109.845 465.725 109.845Z" fill="#1F305E"/>
<path d="M442.103 78.2617C442.103 104.219 421.06 125.262 395.103 125.262C369.146 125.262 348.103 104.219 348.103 78.2617C348.103 52.3048 369.146 31.2617 395.103 31.2617C421.06 31.2617 442.103 52.3048 442.103 78.2617Z" fill="#00E600"/>
<path d="M298.25 122.608H281.596V0.119141H298.25V49.4073C300.97 44.681 304.871 40.8737 309.953 37.9761C315.036 35.0784 320.934 33.6249 327.667 33.6249C338.658 33.6249 346.872 36.8789 352.311 43.3775C357.741 49.8761 360.46 58.6816 360.46 69.7845V122.786H343.797V73.5074C343.797 67.5996 342.943 62.8358 341.227 59.2349C339.511 55.6339 337.092 53.0082 333.96 51.3484C330.828 49.698 327.189 48.8634 323.063 48.8634C317.737 48.8634 313.226 50.0449 309.503 52.408C305.78 54.7712 302.967 57.9595 301.082 61.9825C299.197 65.996 298.25 70.4879 298.25 75.4579V122.608Z" fill="#1F305E"/>
<path d="M221.318 36.11H272.013V50.1106H221.318V36.11ZM254.993 122.786H238.329V0.119141H254.993V122.786Z" fill="#1F305E"/>
<path d="M179.129 124.915C170.736 124.915 163.29 122.993 156.792 119.148C150.293 115.312 145.211 109.995 141.544 103.206C137.877 96.4073 136.049 88.5209 136.049 79.5372C136.049 70.5536 137.849 62.4608 141.45 55.6058C145.061 48.7509 150.021 43.3776 156.351 39.4766C162.662 35.5755 170.023 33.625 178.416 33.625C186.809 33.625 193.87 35.3973 199.947 38.942C206.033 42.4867 210.759 47.4474 214.135 53.8335C217.492 60.2102 219.18 67.7216 219.18 76.3489V82.5568L144.911 82.7349L145.267 71.5663H202.526C202.526 64.3644 200.332 58.5691 195.971 54.1992C191.592 49.8293 185.74 47.6444 178.426 47.6444C172.874 47.6444 168.11 48.8541 164.163 51.2828C160.205 53.7022 157.176 57.2469 155.123 61.9169C153.05 66.5869 152.019 72.1665 152.019 78.6651C152.019 89.0741 154.382 97.0731 159.108 102.69C163.834 108.298 170.633 111.102 179.495 111.102C185.993 111.102 191.31 109.808 195.446 107.201C199.572 104.603 202.357 100.824 203.773 95.8541H219.368C217.239 105.072 212.691 112.227 205.724 117.3C198.747 122.383 189.894 124.924 179.138 124.924" fill="#1F305E"/>
<path d="M16.6544 122.787H0V36.1104H14.8915L17.1889 52.0615L15.0603 50.6455C16.8326 45.7974 20.1147 41.7557 24.8972 38.5017C29.6798 35.2571 35.5032 33.6348 42.3488 33.6348C50.0383 33.6348 56.415 35.6978 61.4882 39.8427C66.5802 43.9781 69.8811 49.4734 71.419 56.3283H68.4088C69.581 49.4827 72.835 43.9875 78.152 39.8427C83.4785 35.7072 90.0239 33.6348 97.826 33.6348C107.747 33.6348 115.549 36.5324 121.223 42.3183C126.906 48.1136 129.738 56.0282 129.738 66.0715V122.796H113.43V70.1507C113.43 63.2958 111.686 58.0069 108.198 54.284C104.718 50.5611 100.011 48.7044 94.1125 48.7044C89.9771 48.7044 86.3386 49.6234 83.2065 51.452C80.0744 53.2806 77.6175 55.9063 75.8546 59.3385C74.0728 62.7706 73.1913 66.7842 73.1913 71.3886V122.796H56.6963V69.9726C56.6963 63.1176 54.9896 57.8943 51.5575 54.284C48.1347 50.683 43.4647 48.8826 37.5569 48.8826C33.4214 48.8826 29.7829 49.8016 26.6508 51.6302C23.5188 53.4588 21.0619 56.0564 19.2989 59.4229C17.5172 62.7894 16.6357 66.7842 16.6357 71.3886V122.796L16.6544 122.787Z" fill="#1F305E"/>
</svg>

<svg width="510" height="126" fill="none" xmlns="http://www.w3.org/2000/svg"><path d="M462.358 124.915c-8.383 0-15.594-1.923-21.624-5.758-6.021-3.845-10.662-9.19-13.907-16.045-3.254-6.855-4.876-14.647-4.876-23.397 0-8.749 1.66-16.748 4.96-23.66 3.311-6.91 8.037-12.377 14.179-16.4 6.152-4.014 13.476-6.03 21.981-6.03 6.733 0 12.735 1.397 17.986 4.173 5.261 2.776 9.368 6.883 12.322 12.313V.119h16.495v122.667h-14.901l-1.416-15.773c-2.832 5.795-6.995 10.222-12.5 13.297-5.495 3.076-11.722 4.605-18.699 4.605Zm3.367-15.07c5.673 0 10.549-1.294 14.619-3.901 4.089-2.597 7.249-6.208 9.49-10.812 2.242-4.614 3.367-9.922 3.367-15.951 0-6.03-1.125-11.319-3.367-15.857-2.241-4.549-5.401-8.121-9.49-10.728-4.07-2.598-8.946-3.901-14.619-3.901-5.674 0-10.512 1.331-14.535 3.994-4.014 2.654-7.09 6.264-9.218 10.813-2.12 4.548-3.189 9.78-3.189 15.679 0 5.898 1.069 11.347 3.189 15.95 2.128 4.615 5.204 8.216 9.218 10.813 4.023 2.607 8.871 3.901 14.535 3.901Z" fill="#1F305E"/><path d="M442.103 78.262c0 25.957-21.043 47-47 47s-47-21.043-47-47 21.043-47 47-47 47 21.043 47 47Z" fill="#00E600"/><path d="M298.25 122.608h-16.654V.119h16.654v49.288c2.72-4.726 6.621-8.533 11.703-11.43 5.083-2.899 10.981-4.352 17.714-4.352 10.991 0 19.205 3.254 24.644 9.752 5.43 6.5 8.149 15.305 8.149 26.407v53.002h-16.663V73.507c0-5.907-.854-10.671-2.57-14.272-1.716-3.601-4.135-6.227-7.267-7.887-3.132-1.65-6.771-2.485-10.897-2.485-5.326 0-9.837 1.182-13.56 3.545-3.723 2.363-6.536 5.551-8.421 9.575-1.885 4.013-2.832 8.505-2.832 13.475v47.15ZM221.318 36.11h50.695v14h-50.695v-14Zm33.675 86.676h-16.664V.119h16.664v122.667ZM179.129 124.915c-8.393 0-15.839-1.922-22.337-5.767-6.499-3.836-11.581-9.153-15.248-15.942-3.667-6.799-5.495-14.685-5.495-23.669 0-8.983 1.8-17.076 5.401-23.931 3.611-6.855 8.571-12.228 14.901-16.13 6.311-3.9 13.672-5.851 22.065-5.851s15.454 1.772 21.531 5.317c6.086 3.545 10.812 8.505 14.188 14.892 3.357 6.376 5.045 13.888 5.045 22.515v6.208l-74.269.178.356-11.169h57.259c0-7.202-2.194-12.997-6.555-17.367-4.379-4.37-10.231-6.555-17.545-6.555-5.552 0-10.316 1.21-14.263 3.639-3.958 2.42-6.987 5.964-9.04 10.634-2.073 4.67-3.104 10.25-3.104 16.748 0 10.41 2.363 18.408 7.089 24.025 4.726 5.608 11.525 8.412 20.387 8.412 6.498 0 11.815-1.294 15.951-3.901 4.126-2.598 6.911-6.377 8.327-11.347h15.595c-2.129 9.218-6.677 16.373-13.644 21.446-6.977 5.083-15.83 7.624-26.586 7.624M16.654 122.787H0V36.11h14.892l2.297 15.952-2.129-1.416c1.773-4.849 5.055-8.89 9.837-12.144 4.783-3.245 10.606-4.867 17.452-4.867 7.69 0 14.066 2.063 19.14 6.208 5.091 4.135 8.392 9.63 9.93 16.485h-3.01c1.172-6.845 4.426-12.34 9.743-16.485 5.326-4.136 11.872-6.208 19.674-6.208 9.921 0 17.723 2.897 23.397 8.683 5.683 5.796 8.515 13.71 8.515 23.754v56.724H113.43V70.151c0-6.855-1.744-12.144-5.232-15.867-3.48-3.723-8.187-5.58-14.085-5.58-4.136 0-7.774.92-10.906 2.748-3.133 1.829-5.59 4.454-7.352 7.887-1.782 3.432-2.664 7.445-2.664 12.05v51.407H56.696V69.973c0-6.855-1.706-12.079-5.139-15.689-3.422-3.601-8.092-5.401-14-5.401-4.136 0-7.774.919-10.906 2.747-3.132 1.829-5.59 4.426-7.352 7.793-1.782 3.366-2.663 7.361-2.663 11.966v51.407l.018-.009Z" fill="#1F305E"/></svg>
